X: 1
T: Reunion Jig
O: jig version of Maid behind the Bar
C: Bruce A. Randall
N: Slightly modified by John Chambers
M: 6/8
R: jig
K: D
D |\
"D"FAB AFD | FAB "A"cde | "Bm"fBA Bde | "(G)"fBA "A7"BdB |\
"D"AFG AFD | FAB "A"cde | "Bm"fBA "G"BdB | "A"AFE "D"D2 :|
|: d |\
"D"fga fdg | fag fdf | "Em"ega bge | geb "A7"geg |\
"D"faa baf | def "A"ede | "Bm"fBA "G"BdB | "A"AFE "D"D2 :|


